X:263
T: JETZT IST ES BALD SONNTAG, DA BIN ICH GAR ZU FROH
N: Z0261
O: Europa, Mitteleuropa, Deutschland, Rheinland
R: lyrisches Lied, Romanze
M: 2/4
L: 1/8
K: G
D | G2BG | d2c
c | BBAA | G2z
D | G2BG | d2c
c | BBAA | G2z
B | AcAA | BdB
B | AcAA | BdB
D | GGBG | d2c
c | BBAA | G2z

